static/img/kroki/c9d788501ce03a45992a1f5d917fab08.svg

<?xml version="1.0" encoding="us-ascii" standalone="no"?><svg xmlns="http://www.w3.org/2000/svg" xmlns:xlink="http://www.w3.org/1999/xlink" contentStyleType="text/css" height="352px" preserveAspectRatio="none" style="width:263px;height:352px;" version="1.1" viewBox="0 0 263 352" width="263px" zoomAndPan="magnify"><defs/><g><!--class aws_eks_cluster--><g id="elem_aws_eks_cluster"><rect codeLine="22" fill="#3D176E" height="39.7891" id="aws_eks_cluster" rx="2.5" ry="2.5" style="stroke:#000D19;stroke-width:0.5;" width="177" x="23.5" y="206.58"/><ellipse cx="38.5" cy="226.4745" fill="#ADD1B2" rx="11" ry="11" style="stroke:#181818;stroke-width:1.0;"/><path d="M41.4688,232.1152 Q40.8906,232.412 40.25,232.5527 Q39.6094,232.7089 38.9063,232.7089 Q36.4063,232.7089 35.0781,231.0683 Q33.7656,229.412 33.7656,226.287 Q33.7656,223.162 35.0781,221.5058 Q36.4063,219.8495 38.9063,219.8495 Q39.6094,219.8495 40.25,220.0058 Q40.9063,220.162 41.4688,220.4589 L41.4688,223.1777 Q40.8438,222.5995 40.25,222.3339 Q39.6563,222.0527 39.0313,222.0527 Q37.6875,222.0527 37,223.1308 Q36.3125,224.1933 36.3125,226.287 Q36.3125,228.3808 37,229.4589 Q37.6875,230.5214 39.0313,230.5214 Q39.6563,230.5214 40.25,230.2558 Q40.8438,229.9745 41.4688,229.3964 L41.4688,232.1152 Z " fill="#000000"/><text fill="#D9B8FF" font-family="Helvetica" font-size="17" lengthAdjust="spacing" textLength="135" x="57.5" y="232.3598">aws_eks_cluster</text></g><!--class aws_eks_nodegroup--><g id="elem_aws_eks_nodegroup"><rect codeLine="24" fill="#3D176E" height="39.7891" id="aws_eks_nodegroup" rx="2.5" ry="2.5" style="stroke:#000D19;stroke-width:0.5;" width="210" x="7" y="306.37"/><ellipse cx="22" cy="326.2645" fill="#ADD1B2" rx="11" ry="11" style="stroke:#181818;stroke-width:1.0;"/><path d="M24.9688,331.9052 Q24.3906,332.202 23.75,332.3427 Q23.1094,332.4989 22.4063,332.4989 Q19.9063,332.4989 18.5781,330.8583 Q17.2656,329.202 17.2656,326.077 Q17.2656,322.952 18.5781,321.2958 Q19.9063,319.6395 22.4063,319.6395 Q23.1094,319.6395 23.75,319.7958 Q24.4063,319.952 24.9688,320.2489 L24.9688,322.9677 Q24.3438,322.3895 23.75,322.1239 Q23.1563,321.8427 22.5313,321.8427 Q21.1875,321.8427 20.5,322.9208 Q19.8125,323.9833 19.8125,326.077 Q19.8125,328.1708 20.5,329.2489 Q21.1875,330.3114 22.5313,330.3114 Q23.1563,330.3114 23.75,330.0458 Q24.3438,329.7645 24.9688,329.1864 L24.9688,331.9052 Z " fill="#000000"/><text fill="#D9B8FF" font-family="Helvetica" font-size="17" lengthAdjust="spacing" textLength="168" x="41" y="332.1498">aws_eks_nodegroup</text></g><!--class aws_iam_role--><g id="elem_aws_iam_role"><rect codeLine="26" fill="#3D176E" height="39.7891" id="aws_iam_role" rx="2.5" ry="2.5" style="stroke:#000D19;stroke-width:0.5;" width="157" x="99.5" y="106.79"/><ellipse cx="114.5" cy="126.6845" fill="#ADD1B2" rx="11" ry="11" style="stroke:#181818;stroke-width:1.0;"/><path d="M117.4688,132.3252 Q116.8906,132.622 116.25,132.7627 Q115.6094,132.9189 114.9063,132.9189 Q112.4063,132.9189 111.0781,131.2783 Q109.7656,129.622 109.7656,126.497 Q109.7656,123.372 111.0781,121.7158 Q112.4063,120.0595 114.9063,120.0595 Q115.6094,120.0595 116.25,120.2158 Q116.9063,120.372 117.4688,120.6689 L117.4688,123.3877 Q116.8438,122.8095 116.25,122.5439 Q115.6563,122.2627 115.0313,122.2627 Q113.6875,122.2627 113,123.3408 Q112.3125,124.4033 112.3125,126.497 Q112.3125,128.5908 113,129.6689 Q113.6875,130.7314 115.0313,130.7314 Q115.6563,130.7314 116.25,130.4658 Q116.8438,130.1845 117.4688,129.6064 L117.4688,132.3252 Z " fill="#000000"/><text fill="#D9B8FF" font-family="Helvetica" font-size="17" lengthAdjust="spacing" textLength="115" x="133.5" y="132.5698">aws_iam_role</text></g><!--class aws_region--><g id="elem_aws_region"><rect codeLine="28" fill="#3D176E" height="39.7891" id="aws_region" rx="2.5" ry="2.5" style="stroke:#000D19;stroke-width:0.5;" width="137" x="43.5" y="7"/><ellipse cx="58.5" cy="26.8945" fill="#ADD1B2" rx="11" ry="11" style="stroke:#181818;stroke-width:1.0;"/><path d="M61.4688,32.5352 Q60.8906,32.832 60.25,32.9727 Q59.6094,33.1289 58.9063,33.1289 Q56.4063,33.1289 55.0781,31.4883 Q53.7656,29.832 53.7656,26.707 Q53.7656,23.582 55.0781,21.9258 Q56.4063,20.2695 58.9063,20.2695 Q59.6094,20.2695 60.25,20.4258 Q60.9063,20.582 61.4688,20.8789 L61.4688,23.5977 Q60.8438,23.0195 60.25,22.7539 Q59.6563,22.4727 59.0313,22.4727 Q57.6875,22.4727 57,23.5508 Q56.3125,24.6133 56.3125,26.707 Q56.3125,28.8008 57,29.8789 Q57.6875,30.9414 59.0313,30.9414 Q59.6563,30.9414 60.25,30.6758 Q60.8438,30.3945 61.4688,29.8164 L61.4688,32.5352 Z " fill="#000000"/><text fill="#D9B8FF" font-family="Helvetica" font-size="17" lengthAdjust="spacing" textLength="95" x="77.5" y="32.7798">aws_region</text></g><!--link aws_eks_cluster to aws_eks_nodegroup--><g id="link_aws_eks_cluster_aws_eks_nodegroup"><path codeLine="30" d="M112,246.8 C112,263.94 112,282.85 112,299.99 " fill="none" id="aws_eks_cluster-to-aws_eks_nodegroup" style="stroke:#1A83AF;stroke-width:2.0;"/><polygon fill="#1A83AF" points="112,305.99,116,296.99,112,300.99,108,296.99,112,305.99" style="stroke:#1A83AF;stroke-width:2.0;"/></g><!--link aws_iam_role to aws_eks_cluster--><g id="link_aws_iam_role_aws_eks_cluster"><path codeLine="31" d="M164.96,147.01 C153.39,164.15 139.9249,184.0856 128.3649,201.2256 " fill="none" id="aws_iam_role-to-aws_eks_cluster" style="stroke:#1A83AF;stroke-width:2.0;"/><polygon fill="#1A83AF" points="125.01,206.2,133.3587,200.9751,127.8058,202.0547,126.7262,196.5018,125.01,206.2" style="stroke:#1A83AF;stroke-width:2.0;"/></g><!--link aws_region to aws_eks_cluster--><g id="link_aws_region_aws_eks_cluster"><path codeLine="32" d="M102.43,47.1 C95.21,62.74 85.89,85.61 82,106.79 C78.8,124.19 78.8,129.19 82,146.58 C85.89,167.77 92.6939,185.1931 99.9139,200.8231 " fill="none" id="aws_region-to-aws_eks_cluster" style="stroke:#1A83AF;stroke-width:2.0;"/><polygon fill="#1A83AF" points="102.43,206.27,102.2871,196.4222,100.3332,201.7309,95.0245,199.777,102.43,206.27" style="stroke:#1A83AF;stroke-width:2.0;"/></g><!--link aws_region to aws_iam_role--><g id="link_aws_region_aws_iam_role"><path codeLine="33" d="M125.04,47.22 C136.61,64.36 150.0737,84.3065 161.6337,101.4365 " fill="none" id="aws_region-to-aws_iam_role" style="stroke:#1A83AF;stroke-width:2.0;"/><polygon fill="#1A83AF" points="164.99,106.41,163.2712,96.7123,162.1931,102.2654,156.6399,101.1873,164.99,106.41" style="stroke:#1A83AF;stroke-width:2.0;"/></g><!--SRC=[dP3DIyD04CNl-IiMUYua5arx4MAWwAM8zIPI9jdPPaco6sOtXYh-xvf-o7RJ3_0wxpVllPb2ScHODtR3Qgmp91EOKge626gM4EakrPKcDX82n2JsnRbMzYgmW1hP8rOVQ6KEFl5QoBnKQ0oxSQG7oCirwLRndRqbKEPNGcKTAgt0cCHQabbhqId3PzbK29_qJKSJ7iLtEC0qSQGz4eOXZsO-SZNgujr_n59-8elSfosqnK7DGSIMkjYo9voIWqCF-jcEpy2vL6jswynUTfr88HtDbmLmtVMqWCguCSOYeRQR1jF1LJYRSX6VX9_EmNd_EGQTMM5fLddLzZliA_Zs5AKvzlkDfqceLwGhzCQ4QwdLTkXxZzz6KJAT9FFtyVtGFZWoFSdkZG8dvz_S8Ua7]--></g></svg>

<svg xmlns="http://www.w3.org/2000/svg" width="263" height="352" viewBox="0 0 263 352"><rect width="177" height="39.789" x="23.5" y="206.58" fill="#3D176E" rx="2.5" ry="2.5" style="stroke:#000d19;stroke-width:.5"/><circle cx="38.5" cy="226.475" r="11" fill="#ADD1B2" style="stroke:#181818;stroke-width:1"/><path d="M41.469 232.115q-.578.297-1.219.438-.64.156-1.344.156-2.5 0-3.828-1.64-1.312-1.657-1.312-4.782t1.312-4.781q1.328-1.656 3.828-1.656.703 0 1.344.156.656.156 1.219.453v2.719q-.625-.578-1.219-.844-.594-.281-1.219-.281-1.343 0-2.031 1.078-.687 1.062-.687 3.156t.687 3.172q.688 1.062 2.031 1.062.625 0 1.219-.265.594-.281 1.219-.86z"/><text x="57.5" y="232.36" fill="#D9B8FF" font-family="Helvetica" font-size="17" textLength="135">aws_eks_cluster</text><rect width="210" height="39.789" x="7" y="306.37" fill="#3D176E" rx="2.5" ry="2.5" style="stroke:#000d19;stroke-width:.5"/><circle cx="22" cy="326.264" r="11" fill="#ADD1B2" style="stroke:#181818;stroke-width:1"/><path d="M24.969 331.905q-.578.297-1.219.438-.64.156-1.344.156-2.5 0-3.828-1.64-1.312-1.657-1.312-4.782t1.312-4.781q1.328-1.656 3.828-1.656.703 0 1.344.156.656.156 1.219.453v2.719q-.625-.579-1.219-.844-.594-.281-1.219-.281-1.343 0-2.031 1.078-.687 1.062-.687 3.156t.687 3.172q.688 1.062 2.031 1.062.625 0 1.219-.265.594-.281 1.219-.86z"/><text x="41" y="332.15" fill="#D9B8FF" font-family="Helvetica" font-size="17" textLength="168">aws_eks_nodegroup</text><rect width="157" height="39.789" x="99.5" y="106.79" fill="#3D176E" rx="2.5" ry="2.5" style="stroke:#000d19;stroke-width:.5"/><circle cx="114.5" cy="126.684" r="11" fill="#ADD1B2" style="stroke:#181818;stroke-width:1"/><path d="M117.469 132.325q-.578.297-1.219.438-.64.156-1.344.156-2.5 0-3.828-1.64-1.312-1.657-1.312-4.782t1.312-4.781q1.328-1.656 3.828-1.656.703 0 1.344.156.656.156 1.219.453v2.719q-.625-.579-1.219-.844-.594-.281-1.219-.281-1.344 0-2.031 1.078-.687 1.062-.687 3.156t.687 3.172q.688 1.062 2.031 1.062.625 0 1.219-.265.594-.281 1.219-.86z"/><text x="133.5" y="132.57" fill="#D9B8FF" font-family="Helvetica" font-size="17" textLength="115">aws_iam_role</text><rect width="137" height="39.789" x="43.5" y="7" fill="#3D176E" rx="2.5" ry="2.5" style="stroke:#000d19;stroke-width:.5"/><circle cx="58.5" cy="26.895" r="11" fill="#ADD1B2" style="stroke:#181818;stroke-width:1"/><path d="M61.469 32.535q-.578.297-1.219.438-.64.156-1.344.156-2.5 0-3.828-1.64-1.312-1.657-1.312-4.782t1.312-4.781q1.328-1.656 3.828-1.656.703 0 1.344.156.656.156 1.219.453v2.719q-.625-.578-1.219-.844-.594-.281-1.219-.281-1.343 0-2.031 1.078-.687 1.062-.687 3.156T57 29.879q.688 1.062 2.031 1.062.625 0 1.219-.265.594-.281 1.219-.86z"/><text x="77.5" y="32.78" fill="#D9B8FF" font-family="Helvetica" font-size="17" textLength="95">aws_region</text><path fill="none" d="M112 246.8v53.19" style="stroke:#1a83af;stroke-width:2"/><path fill="#1A83AF" d="m112 305.99 4-9-4 4-4-4z" style="stroke:#1a83af;stroke-width:2"/><path fill="none" d="M164.96 147.01c-11.57 17.14-25.035 37.076-36.595 54.216" style="stroke:#1a83af;stroke-width:2"/><path fill="#1A83AF" d="m125.01 206.2 8.349-5.225-5.553 1.08-1.08-5.553z" style="stroke:#1a83af;stroke-width:2"/><path fill="none" d="M102.43 47.1C95.21 62.74 85.89 85.61 82 106.79c-3.2 17.4-3.2 22.4 0 39.79 3.89 21.19 10.694 38.613 17.914 54.243" style="stroke:#1a83af;stroke-width:2"/><path fill="#1A83AF" d="m102.43 206.27-.143-9.848-1.954 5.309-5.308-1.954z" style="stroke:#1a83af;stroke-width:2"/><path fill="none" d="M125.04 47.22c11.57 17.14 25.034 37.087 36.594 54.217" style="stroke:#1a83af;stroke-width:2"/><path fill="#1A83AF" d="m164.99 106.41-1.719-9.698-1.078 5.553-5.553-1.078z" style="stroke:#1a83af;stroke-width:2"/></svg>
